src/svg/uf096-square-o.svg

<!-- Generated by IcoMoon.io -->
<svg version="1.1" xmlns="http://www.w3.org/2000/svg" width="25" height="32" viewBox="0 0 25 32">
<path d="M20 4.571h-14.857c-1.571 0-2.857 1.286-2.857 2.857v14.857c0 1.571 1.286 2.857 2.857 2.857h14.857c1.571 0 2.857-1.286 2.857-2.857v-14.857c0-1.571-1.286-2.857-2.857-2.857zM25.143 7.429v14.857c0 2.839-2.304 5.143-5.143 5.143h-14.857c-2.839 0-5.143-2.304-5.143-5.143v-14.857c0-2.839 2.304-5.143 5.143-5.143h14.857c2.839 0 5.143 2.304 5.143 5.143z"></path>
</svg>

<svg xmlns="http://www.w3.org/2000/svg" width="25" height="32"><path d="M20 4.571H5.143a2.866 2.866 0 0 0-2.857 2.857v14.857a2.866 2.866 0 0 0 2.857 2.857H20a2.866 2.866 0 0 0 2.857-2.857V7.428A2.866 2.866 0 0 0 20 4.571zm5.143 2.858v14.857A5.145 5.145 0 0 1 20 27.429H5.143A5.145 5.145 0 0 1 0 22.286V7.429a5.145 5.145 0 0 1 5.143-5.143H20a5.145 5.145 0 0 1 5.143 5.143z"/></svg>
